( pcb2gcode 2.4.0 )
( Software-independent Gcode )

( This file uses 1 drill bit sizes. )
( Bit sizes: [1mm] )

G94       (Millimeters per minute feed rate.)
G21       (Units == Millimeters.)
G91.1     (Incremental arc distance mode.)
G90       (Absolute coordinates.)
G00 S8000     (RPM spindle speed.)

G00 Z25.00000 (Retract)
T1
M5      (Spindle stop.)
G04 P1.00000
(MSG, Change tool bit to drill size 1mm)
M6      (Tool change.)
M0      (Temporary machine stop.)
M3      (Spindle on clockwise.)
G0 Z3.00000
G04 P1.00000

G1 F40.00000
G0 X10.16000 Y0.00000
G1 Z-0.01000
G1 Z3.00000
G0 X12.70000 Y0.00000
G1 Z-0.01000
G1 Z3.00000
G0 X15.24000 Y0.00000
G1 Z-0.01000
G1 Z3.00000
G0 X17.78000 Y0.00000
G1 Z-0.01000
G1 Z3.00000
G0 X20.32000 Y0.00000
G1 Z-0.01000
G1 Z3.00000
G0 X22.86000 Y0.00000
G1 Z-0.01000
G1 Z3.00000
G0 X25.40000 Y0.00000
G1 Z-0.01000
G1 Z3.00000
G0 X27.94000 Y0.00000
G1 Z-0.01000
G1 Z3.00000
G0 X40.64000 Y-27.94000
G1 Z-0.01000
G1 Z3.00000
G0 X40.64000 Y-30.48000
G1 Z-0.01000
G1 Z3.00000
G0 X40.64000 Y-33.02000
G1 Z-0.01000
G1 Z3.00000
G0 X40.64000 Y-35.56000
G1 Z-0.01000
G1 Z3.00000
G0 X27.94000 Y-22.86000
G1 Z-0.01000
G1 Z3.00000
G0 X25.40000 Y-22.86000
G1 Z-0.01000
G1 Z3.00000
G0 X22.86000 Y-22.86000
G1 Z-0.01000
G1 Z3.00000
G0 X20.32000 Y-22.86000
G1 Z-0.01000
G1 Z3.00000
G0 X17.78000 Y-22.86000
G1 Z-0.01000
G1 Z3.00000
G0 X15.24000 Y-22.86000
G1 Z-0.01000
G1 Z3.00000
G0 X12.70000 Y-22.86000
G1 Z-0.01000
G1 Z3.00000
G0 X10.16000 Y-22.86000
G1 Z-0.01000
G1 Z3.00000
G0 X0.00000 Y-27.94000
G1 Z-0.01000
G1 Z3.00000
G0 X0.00000 Y-30.48000
G1 Z-0.01000
G1 Z3.00000
G0 X0.00000 Y-33.02000
G1 Z-0.01000
G1 Z3.00000
G0 X0.00000 Y-35.56000
G1 Z-0.01000
G1 Z3.00000

G00 Z25.000 ( All done -- retract )

M5      (Spindle off.)
G04 P1.000000
M9      (Coolant off.)
M2      (Program end.)

