( pcb2gcode 2.4.0 )
( Software-independent Gcode )

G94 ( Millimeters per minute feed rate. )
G21 ( Units == Millimeters. )

G90 ( Absolute coordinates. )
G00 S8000 ( RPM spindle speed. )
G64 P0.01016 ( set maximum deviation from commanded toolpath )
G01 F20.00000 ( Feedrate. )


G00 Z25.00000 (Retract to tool change height)
T0
M5      (Spindle stop.)
G04 P1.00000 (Wait for spindle to stop)
(MSG, Change tool bit to mill diameter 0.40000mm)
M6      (Tool change.)
M0      (Temporary machine stop.)
M3 ( Spindle on clockwise. )
G04 P1.00000 (Wait for spindle to get up to speed)
G04 P0 ( dwell for no time -- G64 should not smooth over this point )
G00 Z0.30000 ( retract )

G00 X9.15998 Y-0.20000 ( rapid move to begin. )
G01 F10.00000
( Mill infeed pass 1/1 )
G01 Z-0.05000
G04 P0 ( dwell for no time -- G64 should not smooth over this point )
G01 F20.00000
G01 X9.15998 Y-0.20000
G01 X9.15998 Y0.20000
G01 X9.17857 Y0.38722
G01 X9.18726 Y0.42812
G01 X9.24644 Y0.60673
G01 X9.35096 Y0.78778
G01 X9.49086 Y0.94313
G01 X9.65998 Y1.06601
G01 X9.83143 Y1.14353
G01 X9.87120 Y1.15646
G01 X10.03478 Y1.19123
G01 X10.07636 Y1.19560
G01 X10.26452 Y1.19451
G01 X10.44877 Y1.15646
G01 X10.48855 Y1.14353
G01 X10.66000 Y1.06601
G01 X10.82911 Y0.94313
G01 X10.96902 Y0.78778
G01 X11.07354 Y0.60673
G01 X11.13813 Y0.40790
G01 X11.16000 Y0.20000
G01 X11.15888 Y-0.22090
G01 X11.13813 Y-0.40790
G01 X11.08103 Y-0.58717
G01 X11.06404 Y-0.62537
G01 X10.96902 Y-0.78778
G01 X10.82911 Y-0.94313
G01 X10.66000 Y-1.06601
G01 X10.48855 Y-1.14353
G01 X10.44877 Y-1.15646
G01 X10.26452 Y-1.19451
G01 X10.05545 Y-1.19451
G01 X9.85096 Y-1.15105
G01 X9.67864 Y-1.07551
G01 X9.64242 Y-1.05461
G01 X9.49086 Y-0.94313
G01 X9.36414 Y-0.80404
G01 X9.33958 Y-0.77020
G01 X9.25594 Y-0.62537
G01 X9.23895 Y-0.58717
G01 X9.18185 Y-0.40790
G01 X9.15998 Y-0.20000
G04 P0 ( dwell for no time -- G64 should not smooth over this point )
G00 Z0.30000 ( retract )

G00 X11.69998 Y-0.20000 ( rapid move to begin. )
G01 F10.00000
( Mill infeed pass 1/1 )
G01 Z-0.05000
G04 P0 ( dwell for no time -- G64 should not smooth over this point )
G01 F20.00000
G01 X11.69998 Y-0.20000
G01 X11.69998 Y0.20000
G01 X11.71857 Y0.38722
G01 X11.72726 Y0.42812
G01 X11.78644 Y0.60673
G01 X11.89096 Y0.78778
G01 X12.03086 Y0.94313
G01 X12.19998 Y1.06601
G01 X12.37143 Y1.14353
G01 X12.41120 Y1.15646
G01 X12.57478 Y1.19123
G01 X12.61636 Y1.19560
G01 X12.80452 Y1.19451
G01 X12.98875 Y1.15646
G01 X13.02855 Y1.14353
G01 X13.19997 Y1.06601
G01 X13.36911 Y0.94313
G01 X13.50902 Y0.78778
G01 X13.61354 Y0.60673
G01 X13.67813 Y0.40790
G01 X13.70000 Y0.20000
G01 X13.69888 Y-0.22090
G01 X13.67813 Y-0.40790
G01 X13.62103 Y-0.58717
G01 X13.60404 Y-0.62537
G01 X13.50902 Y-0.78778
G01 X13.36911 Y-0.94313
G01 X13.19997 Y-1.06601
G01 X13.02855 Y-1.14353
G01 X12.98875 Y-1.15646
G01 X12.80452 Y-1.19451
G01 X12.59545 Y-1.19451
G01 X12.39096 Y-1.15105
G01 X12.21864 Y-1.07551
G01 X12.18242 Y-1.05461
G01 X12.03086 Y-0.94313
G01 X11.90414 Y-0.80404
G01 X11.87958 Y-0.77020
G01 X11.79594 Y-0.62537
G01 X11.77895 Y-0.58717
G01 X11.72185 Y-0.40790
G01 X11.69998 Y-0.20000
G04 P0 ( dwell for no time -- G64 should not smooth over this point )
G00 Z0.30000 ( retract )

G00 X14.23998 Y-0.20000 ( rapid move to begin. )
G01 F10.00000
( Mill infeed pass 1/1 )
G01 Z-0.05000
G04 P0 ( dwell for no time -- G64 should not smooth over this point )
G01 F20.00000
G01 X14.23998 Y-0.20000
G01 X14.23998 Y0.20000
G01 X14.25857 Y0.38722
G01 X14.26726 Y0.42812
G01 X14.32644 Y0.60673
G01 X14.43096 Y0.78778
G01 X14.57086 Y0.94313
G01 X14.73998 Y1.06601
G01 X14.91143 Y1.14353
G01 X14.95120 Y1.15646
G01 X15.11478 Y1.19123
G01 X15.15636 Y1.19560
G01 X15.34452 Y1.19451
G01 X15.52877 Y1.15646
G01 X15.56855 Y1.14353
G01 X15.74000 Y1.06601
G01 X15.90911 Y0.94313
G01 X16.04902 Y0.78778
G01 X16.15354 Y0.60673
G01 X16.21813 Y0.40790
G01 X16.24000 Y0.20000
G01 X16.23888 Y-0.22090
G01 X16.21813 Y-0.40790
G01 X16.16103 Y-0.58717
G01 X16.14404 Y-0.62537
G01 X16.04902 Y-0.78778
G01 X15.90911 Y-0.94313
G01 X15.74000 Y-1.06601
G01 X15.56855 Y-1.14353
G01 X15.52877 Y-1.15646
G01 X15.34452 Y-1.19451
G01 X15.13545 Y-1.19451
G01 X14.93096 Y-1.15105
G01 X14.75864 Y-1.07551
G01 X14.72242 Y-1.05461
G01 X14.57086 Y-0.94313
G01 X14.44414 Y-0.80404
G01 X14.41958 Y-0.77020
G01 X14.33594 Y-0.62537
G01 X14.31895 Y-0.58717
G01 X14.26185 Y-0.40790
G01 X14.23998 Y-0.20000
G04 P0 ( dwell for no time -- G64 should not smooth over this point )
G00 Z0.30000 ( retract )

G00 X16.77998 Y-0.20000 ( rapid move to begin. )
G01 F10.00000
( Mill infeed pass 1/1 )
G01 Z-0.05000
G04 P0 ( dwell for no time -- G64 should not smooth over this point )
G01 F20.00000
G01 X16.77998 Y-0.20000
G01 X16.77998 Y0.20000
G01 X16.79857 Y0.38722
G01 X16.80726 Y0.42812
G01 X16.86644 Y0.60673
G01 X16.97096 Y0.78778
G01 X17.11086 Y0.94313
G01 X17.27998 Y1.06601
G01 X17.45143 Y1.14353
G01 X17.49120 Y1.15646
G01 X17.65478 Y1.19123
G01 X17.69636 Y1.19560
G01 X17.88452 Y1.19451
G01 X18.06877 Y1.15646
G01 X18.10855 Y1.14353
G01 X18.28000 Y1.06601
G01 X18.44911 Y0.94313
G01 X18.58902 Y0.78778
G01 X18.69354 Y0.60673
G01 X18.75813 Y0.40790
G01 X18.78000 Y0.20000
G01 X18.77888 Y-0.22090
G01 X18.75813 Y-0.40790
G01 X18.70103 Y-0.58717
G01 X18.68404 Y-0.62537
G01 X18.58902 Y-0.78778
G01 X18.44911 Y-0.94313
G01 X18.28000 Y-1.06601
G01 X18.10855 Y-1.14353
G01 X18.06877 Y-1.15646
G01 X17.88452 Y-1.19451
G01 X17.67545 Y-1.19451
G01 X17.47096 Y-1.15105
G01 X17.29864 Y-1.07551
G01 X17.26242 Y-1.05461
G01 X17.11086 Y-0.94313
G01 X16.98414 Y-0.80404
G01 X16.95958 Y-0.77020
G01 X16.87594 Y-0.62537
G01 X16.85895 Y-0.58717
G01 X16.80185 Y-0.40790
G01 X16.77998 Y-0.20000
G04 P0 ( dwell for no time -- G64 should not smooth over this point )
G00 Z0.30000 ( retract )

G00 X19.31998 Y-0.20000 ( rapid move to begin. )
G01 F10.00000
( Mill infeed pass 1/1 )
G01 Z-0.05000
G04 P0 ( dwell for no time -- G64 should not smooth over this point )
G01 F20.00000
G01 X19.31998 Y-0.20000
G01 X19.31998 Y0.20000
G01 X19.33857 Y0.38722
G01 X19.34726 Y0.42812
G01 X19.40644 Y0.60673
G01 X19.51096 Y0.78778
G01 X19.65086 Y0.94313
G01 X19.81998 Y1.06601
G01 X19.99143 Y1.14353
G01 X20.03120 Y1.15646
G01 X20.19478 Y1.19123
G01 X20.23636 Y1.19560
G01 X20.42452 Y1.19451
G01 X20.60877 Y1.15646
G01 X20.64855 Y1.14353
G01 X20.82000 Y1.06601
G01 X20.98911 Y0.94313
G01 X21.12902 Y0.78778
G01 X21.23354 Y0.60673
G01 X21.29813 Y0.40790
G01 X21.32000 Y0.20000
G01 X21.31888 Y-0.22090
G01 X21.29813 Y-0.40790
G01 X21.24103 Y-0.58717
G01 X21.22404 Y-0.62537
G01 X21.12902 Y-0.78778
G01 X20.98911 Y-0.94313
G01 X20.82000 Y-1.06601
G01 X20.64855 Y-1.14353
G01 X20.60877 Y-1.15646
G01 X20.42452 Y-1.19451
G01 X20.21545 Y-1.19451
G01 X20.01096 Y-1.15105
G01 X19.83864 Y-1.07551
G01 X19.80242 Y-1.05461
G01 X19.65086 Y-0.94313
G01 X19.52414 Y-0.80404
G01 X19.49958 Y-0.77020
G01 X19.41594 Y-0.62537
G01 X19.39895 Y-0.58717
G01 X19.34185 Y-0.40790
G01 X19.31998 Y-0.20000
G04 P0 ( dwell for no time -- G64 should not smooth over this point )
G00 Z0.30000 ( retract )

G00 X21.85998 Y-0.20000 ( rapid move to begin. )
G01 F10.00000
( Mill infeed pass 1/1 )
G01 Z-0.05000
G04 P0 ( dwell for no time -- G64 should not smooth over this point )
G01 F20.00000
G01 X21.85998 Y-0.20000
G01 X21.85998 Y0.20000
G01 X21.87857 Y0.38722
G01 X21.88726 Y0.42812
G01 X21.94644 Y0.60673
G01 X22.05096 Y0.78778
G01 X22.19086 Y0.94313
G01 X22.35998 Y1.06601
G01 X22.53143 Y1.14353
G01 X22.57120 Y1.15646
G01 X22.73478 Y1.19123
G01 X22.77636 Y1.19560
G01 X22.96452 Y1.19451
G01 X23.14877 Y1.15646
G01 X23.18855 Y1.14353
G01 X23.36000 Y1.06601
G01 X23.52911 Y0.94313
G01 X23.66902 Y0.78778
G01 X23.77354 Y0.60673
G01 X23.83813 Y0.40790
G01 X23.86000 Y0.20000
G01 X23.85888 Y-0.22090
G01 X23.83813 Y-0.40790
G01 X23.78103 Y-0.58717
G01 X23.76404 Y-0.62537
G01 X23.66902 Y-0.78778
G01 X23.52911 Y-0.94313
G01 X23.36000 Y-1.06601
G01 X23.18855 Y-1.14353
G01 X23.14877 Y-1.15646
G01 X22.96452 Y-1.19451
G01 X22.75545 Y-1.19451
G01 X22.55096 Y-1.15105
G01 X22.37864 Y-1.07551
G01 X22.34242 Y-1.05461
G01 X22.19086 Y-0.94313
G01 X22.06414 Y-0.80404
G01 X22.03958 Y-0.77020
G01 X21.95594 Y-0.62537
G01 X21.93895 Y-0.58717
G01 X21.88185 Y-0.40790
G01 X21.85998 Y-0.20000
G04 P0 ( dwell for no time -- G64 should not smooth over this point )
G00 Z0.30000 ( retract )

G00 X24.39998 Y-0.20000 ( rapid move to begin. )
G01 F10.00000
( Mill infeed pass 1/1 )
G01 Z-0.05000
G04 P0 ( dwell for no time -- G64 should not smooth over this point )
G01 F20.00000
G01 X24.39998 Y-0.20000
G01 X24.39998 Y0.20000
G01 X24.41857 Y0.38722
G01 X24.42726 Y0.42812
G01 X24.48644 Y0.60673
G01 X24.59096 Y0.78778
G01 X24.73086 Y0.94313
G01 X24.89998 Y1.06601
G01 X25.07143 Y1.14353
G01 X25.11120 Y1.15646
G01 X25.27478 Y1.19123
G01 X25.31636 Y1.19560
G01 X25.50452 Y1.19451
G01 X25.68877 Y1.15646
G01 X25.72852 Y1.14353
G01 X25.90000 Y1.06601
G01 X26.06911 Y0.94313
G01 X26.20902 Y0.78778
G01 X26.31354 Y0.60673
G01 X26.37810 Y0.40790
G01 X26.39997 Y0.20000
G01 X26.39888 Y-0.22090
G01 X26.37810 Y-0.40790
G01 X26.32103 Y-0.58717
G01 X26.30404 Y-0.62537
G01 X26.20902 Y-0.78778
G01 X26.06911 Y-0.94313
G01 X25.90000 Y-1.06601
G01 X25.72852 Y-1.14353
G01 X25.68877 Y-1.15646
G01 X25.50452 Y-1.19451
G01 X25.29545 Y-1.19451
G01 X25.09096 Y-1.15105
G01 X24.91864 Y-1.07551
G01 X24.88242 Y-1.05461
G01 X24.73086 Y-0.94313
G01 X24.60414 Y-0.80404
G01 X24.57958 Y-0.77020
G01 X24.49594 Y-0.62537
G01 X24.47895 Y-0.58717
G01 X24.42185 Y-0.40790
G01 X24.39998 Y-0.20000
G04 P0 ( dwell for no time -- G64 should not smooth over this point )
G00 Z0.30000 ( retract )

G00 X26.93998 Y-0.20000 ( rapid move to begin. )
G01 F10.00000
( Mill infeed pass 1/1 )
G01 Z-0.05000
G04 P0 ( dwell for no time -- G64 should not smooth over this point )
G01 F20.00000
G01 X26.93998 Y-0.20000
G01 X26.93998 Y0.20000
G01 X26.95857 Y0.38722
G01 X26.96726 Y0.42812
G01 X27.02644 Y0.60673
G01 X27.13096 Y0.78778
G01 X27.27086 Y0.94313
G01 X27.43998 Y1.06601
G01 X27.61143 Y1.14353
G01 X27.65120 Y1.15646
G01 X27.81478 Y1.19123
G01 X27.85636 Y1.19560
G01 X28.04452 Y1.19451
G01 X28.22877 Y1.15646
G01 X28.26855 Y1.14353
G01 X28.44000 Y1.06601
G01 X28.60911 Y0.94313
G01 X28.74902 Y0.78778
G01 X28.85354 Y0.60673
G01 X28.91813 Y0.40790
G01 X28.94000 Y0.20000
G01 X28.93888 Y-0.22090
G01 X28.91813 Y-0.40790
G01 X28.86103 Y-0.58717
G01 X28.84404 Y-0.62537
G01 X28.74902 Y-0.78778
G01 X28.60911 Y-0.94313
G01 X28.44000 Y-1.06601
G01 X28.26855 Y-1.14353
G01 X28.22877 Y-1.15646
G01 X28.04452 Y-1.19451
G01 X27.83545 Y-1.19451
G01 X27.63096 Y-1.15105
G01 X27.45864 Y-1.07551
G01 X27.42242 Y-1.05461
G01 X27.27086 Y-0.94313
G01 X27.14414 Y-0.80404
G01 X27.11958 Y-0.77020
G01 X27.03594 Y-0.62537
G01 X27.01895 Y-0.58717
G01 X26.96185 Y-0.40790
G01 X26.93998 Y-0.20000
G04 P0 ( dwell for no time -- G64 should not smooth over this point )
G00 Z0.30000 ( retract )

G00 X39.58999 Y-30.48000 ( rapid move to begin. )
G01 F10.00000
( Mill infeed pass 1/1 )
G01 Z-0.05000
G04 P0 ( dwell for no time -- G64 should not smooth over this point )
G01 F20.00000
G01 X39.58999 Y-30.48000
G01 X39.61293 Y-30.26169
G01 X39.68077 Y-30.05292
G01 X39.79052 Y-29.86281
G01 X39.92260 Y-29.71449
G01 X39.95367 Y-29.68650
G01 X40.09743 Y-29.58206
G01 X40.13365 Y-29.56115
G01 X40.31551 Y-29.48137
G01 X40.50955 Y-29.43901
G01 X40.55115 Y-29.43464
G01 X40.74975 Y-29.43573
G01 X40.96446 Y-29.48137
G01 X41.16499 Y-29.57065
G01 X41.34256 Y-29.69969
G01 X41.48945 Y-29.86281
G01 X41.59921 Y-30.05292
G01 X41.66705 Y-30.26169
G01 X41.68999 Y-30.48000
G01 X41.66705 Y-30.69829
G01 X41.59921 Y-30.90705
G01 X41.48945 Y-31.09717
G01 X41.35737 Y-31.24548
G01 X41.32631 Y-31.27347
G01 X41.18254 Y-31.37792
G01 X41.14632 Y-31.39882
G01 X40.96446 Y-31.47860
G01 X40.77043 Y-31.52097
G01 X40.72882 Y-31.52534
G01 X40.53022 Y-31.52424
G01 X40.31551 Y-31.47860
G01 X40.11498 Y-31.38932
G01 X39.93741 Y-31.26029
G01 X39.79052 Y-31.09717
G01 X39.68077 Y-30.90705
G01 X39.61293 Y-30.69829
G01 X39.58999 Y-30.48000
G04 P0 ( dwell for no time -- G64 should not smooth over this point )
G00 Z0.30000 ( retract )

G00 X39.58999 Y-33.02000 ( rapid move to begin. )
G01 F10.00000
( Mill infeed pass 1/1 )
G01 Z-0.05000
G04 P0 ( dwell for no time -- G64 should not smooth over this point )
G01 F20.00000
G01 X39.58999 Y-33.02000
G01 X39.61293 Y-32.80169
G01 X39.68077 Y-32.59292
G01 X39.79052 Y-32.40281
G01 X39.92260 Y-32.25449
G01 X39.95367 Y-32.22650
G01 X40.09743 Y-32.12206
G01 X40.13365 Y-32.10115
G01 X40.31551 Y-32.02137
G01 X40.50955 Y-31.97901
G01 X40.55115 Y-31.97464
G01 X40.74975 Y-31.97573
G01 X40.96446 Y-32.02137
G01 X41.16499 Y-32.11065
G01 X41.34256 Y-32.23969
G01 X41.48945 Y-32.40281
G01 X41.59921 Y-32.59292
G01 X41.66705 Y-32.80169
G01 X41.68999 Y-33.02000
G01 X41.66705 Y-33.23829
G01 X41.59921 Y-33.44705
G01 X41.48945 Y-33.63717
G01 X41.35737 Y-33.78548
G01 X41.32631 Y-33.81347
G01 X41.18254 Y-33.91792
G01 X41.14632 Y-33.93882
G01 X40.96446 Y-34.01860
G01 X40.77043 Y-34.06097
G01 X40.72882 Y-34.06534
G01 X40.53022 Y-34.06424
G01 X40.31551 Y-34.01860
G01 X40.11498 Y-33.92932
G01 X39.93741 Y-33.80029
G01 X39.79052 Y-33.63717
G01 X39.68077 Y-33.44705
G01 X39.61293 Y-33.23829
G01 X39.58999 Y-33.02000
G04 P0 ( dwell for no time -- G64 should not smooth over this point )
G00 Z0.30000 ( retract )

G00 X26.73998 Y-23.86000 ( rapid move to begin. )
G01 F10.00000
( Mill infeed pass 1/1 )
G01 Z-0.05000
G04 P0 ( dwell for no time -- G64 should not smooth over this point )
G01 F20.00000
G01 X26.73998 Y-23.86000
G01 X26.74384 Y-23.89901
G01 X26.75522 Y-23.93653
G01 X26.77368 Y-23.97110
G01 X26.79857 Y-24.00140
G01 X26.82888 Y-24.02629
G01 X26.86345 Y-24.04476
G01 X26.90096 Y-24.05614
G01 X26.93998 Y-24.06000
G01 X27.24000 Y-24.06000
G01 X27.23998 Y-30.47997
G01 X27.25344 Y-30.61655
G01 X27.28666 Y-30.72938
G01 X27.30167 Y-30.76560
G01 X27.34788 Y-30.85206
G01 X27.36964 Y-30.88465
G01 X27.44500 Y-30.97497
G01 X32.53956 Y-36.06815
G01 X32.61533 Y-36.13033
G01 X32.64792 Y-36.15210
G01 X32.73438 Y-36.19830
G01 X32.77060 Y-36.21331
G01 X32.88342 Y-36.24654
G01 X33.01997 Y-36.26000
G01 X39.58999 Y-36.26000
G01 X39.58999 Y-36.40999
G01 X39.59382 Y-36.44900
G01 X39.60520 Y-36.48652
G01 X39.62370 Y-36.52111
G01 X39.64856 Y-36.55141
G01 X39.67886 Y-36.57628
G01 X39.71346 Y-36.59477
G01 X39.75097 Y-36.60615
G01 X39.78999 Y-36.60999
G01 X41.48999 Y-36.60999
G01 X41.52900 Y-36.60615
G01 X41.56652 Y-36.59477
G01 X41.60111 Y-36.57628
G01 X41.63141 Y-36.55141
G01 X41.65628 Y-36.52111
G01 X41.67477 Y-36.48652
G01 X41.68615 Y-36.44900
G01 X41.68999 Y-36.40999
G01 X41.68999 Y-34.70999
G01 X41.68615 Y-34.67097
G01 X41.67477 Y-34.63346
G01 X41.65628 Y-34.59886
G01 X41.63141 Y-34.56856
G01 X41.60111 Y-34.54370
G01 X41.56652 Y-34.52520
G01 X41.52900 Y-34.51382
G01 X41.48999 Y-34.50999
G01 X39.78999 Y-34.50999
G01 X39.75097 Y-34.51382
G01 X39.71346 Y-34.52520
G01 X39.67886 Y-34.54370
G01 X39.64856 Y-34.56856
G01 X39.62370 Y-34.59886
G01 X39.60520 Y-34.63346
G01 X39.59382 Y-34.67097
G01 X39.58999 Y-34.70999
G01 X39.58999 Y-34.86000
G01 X33.30994 Y-34.85998
G01 X28.64000 Y-30.19003
G01 X28.63997 Y-24.06000
G01 X28.94000 Y-24.06000
G01 X28.97901 Y-24.05614
G01 X29.01653 Y-24.04476
G01 X29.05110 Y-24.02629
G01 X29.08140 Y-24.00140
G01 X29.10629 Y-23.97110
G01 X29.12476 Y-23.93653
G01 X29.13614 Y-23.89901
G01 X29.14000 Y-23.86000
G01 X29.14000 Y-21.85998
G01 X29.13614 Y-21.82096
G01 X29.12476 Y-21.78345
G01 X29.10629 Y-21.74888
G01 X29.08140 Y-21.71857
G01 X29.05110 Y-21.69368
G01 X29.01653 Y-21.67522
G01 X28.97901 Y-21.66384
G01 X28.94000 Y-21.65998
G01 X26.93998 Y-21.65998
G01 X26.90096 Y-21.66384
G01 X26.86345 Y-21.67522
G01 X26.82888 Y-21.69368
G01 X26.79857 Y-21.71857
G01 X26.77368 Y-21.74888
G01 X26.75522 Y-21.78345
G01 X26.74384 Y-21.82096
G01 X26.73998 Y-21.85998
G01 X26.73998 Y-23.86000
G04 P0 ( dwell for no time -- G64 should not smooth over this point )
G00 Z0.30000 ( retract )

G00 X24.39998 Y-23.06000 ( rapid move to begin. )
G01 F10.00000
( Mill infeed pass 1/1 )
G01 Z-0.05000
G04 P0 ( dwell for no time -- G64 should not smooth over this point )
G01 F20.00000
G01 X24.39998 Y-23.06000
G01 X24.41857 Y-23.24722
G01 X24.42726 Y-23.28812
G01 X24.48644 Y-23.46673
G01 X24.59096 Y-23.64778
G01 X24.71605 Y-23.78832
G01 X24.74712 Y-23.81631
G01 X24.89998 Y-23.92601
G01 X25.09096 Y-24.01105
G01 X25.27478 Y-24.05123
G01 X25.31636 Y-24.05560
G01 X25.50452 Y-24.05451
G01 X25.70899 Y-24.01105
G01 X25.88133 Y-23.93551
G01 X25.91755 Y-23.91461
G01 X26.06911 Y-23.80313
G01 X26.19581 Y-23.66404
G01 X26.22039 Y-23.63020
G01 X26.31354 Y-23.46673
G01 X26.37810 Y-23.26790
G01 X26.39997 Y-23.06000
G01 X26.39997 Y-22.65997
G01 X26.37810 Y-22.45208
G01 X26.31354 Y-22.25324
G01 X26.20902 Y-22.07219
G01 X26.09997 Y-21.94949
G01 X26.09997 Y-21.02000
G01 X32.73003 Y-21.02000
G01 X39.59469 Y-27.88465
G01 X39.59108 Y-27.96090
G01 X39.61293 Y-28.15829
G01 X39.68077 Y-28.36705
G01 X39.79052 Y-28.55717
G01 X39.92260 Y-28.70548
G01 X39.95367 Y-28.73347
G01 X40.09743 Y-28.83792
G01 X40.13365 Y-28.85882
G01 X40.31551 Y-28.93860
G01 X40.50955 Y-28.98097
G01 X40.55115 Y-28.98534
G01 X40.74975 Y-28.98424
G01 X40.96446 Y-28.93860
G01 X41.16499 Y-28.84932
G01 X41.32631 Y-28.73347
G01 X41.35737 Y-28.70548
G01 X41.48945 Y-28.55717
G01 X41.58971 Y-28.38572
G01 X41.60672 Y-28.34752
G01 X41.66161 Y-28.17851
G01 X41.67033 Y-28.13761
G01 X41.68999 Y-27.94000
G01 X41.67033 Y-27.74236
G01 X41.66161 Y-27.70147
G01 X41.60672 Y-27.53246
G01 X41.58971 Y-27.49426
G01 X41.48945 Y-27.32281
G01 X41.35737 Y-27.17449
G01 X41.32631 Y-27.14650
G01 X41.16499 Y-27.03065
G01 X40.96446 Y-26.94137
G01 X40.74975 Y-26.89573
G01 X40.58460 Y-26.89464
G01 X33.51497 Y-19.82500
G01 X33.42465 Y-19.74964
G01 X33.39206 Y-19.72788
G01 X33.30560 Y-19.68167
G01 X33.26938 Y-19.66666
G01 X33.17560 Y-19.63821
G01 X33.13714 Y-19.63057
G01 X33.02000 Y-19.61998
G01 X25.40000 Y-19.61998
G01 X25.26342 Y-19.63344
G01 X25.13211 Y-19.67327
G01 X25.02792 Y-19.72788
G01 X24.99533 Y-19.74964
G01 X24.91956 Y-19.81182
G01 X24.89182 Y-19.83956
G01 X24.82964 Y-19.91533
G01 X24.80788 Y-19.94792
G01 X24.76167 Y-20.03438
G01 X24.74666 Y-20.07060
G01 X24.71821 Y-20.16437
G01 X24.71057 Y-20.20283
G01 X24.69998 Y-20.31997
G01 X24.69998 Y-21.94949
G01 X24.59096 Y-22.07219
G01 X24.49594 Y-22.23460
G01 X24.47895 Y-22.27280
G01 X24.42726 Y-22.43186
G01 X24.41857 Y-22.47275
G01 X24.39998 Y-22.65997
G01 X24.39998 Y-23.06000
G04 P0 ( dwell for no time -- G64 should not smooth over this point )
G00 Z0.30000 ( retract )

G00 X13.57577 Y-23.53427 ( rapid move to begin. )
G01 F10.00000
( Mill infeed pass 1/1 )
G01 Z-0.05000
G04 P0 ( dwell for no time -- G64 should not smooth over this point )
G01 F20.00000
G01 X13.57577 Y-23.53427
G01 X14.23998 Y-22.87003
G01 X14.23998 Y-22.65997
G01 X14.25857 Y-22.47275
G01 X14.26726 Y-22.43186
G01 X14.32644 Y-22.25324
G01 X14.43096 Y-22.07219
G01 X14.55605 Y-21.93166
G01 X14.58712 Y-21.90366
G01 X14.72242 Y-21.80537
G01 X14.75864 Y-21.78446
G01 X14.93096 Y-21.70892
G01 X15.13545 Y-21.66546
G01 X15.34452 Y-21.66546
G01 X15.54902 Y-21.70892
G01 X15.74000 Y-21.79396
G01 X15.90911 Y-21.91685
G01 X16.04902 Y-22.07219
G01 X16.15354 Y-22.25324
G01 X16.21813 Y-22.45208
G01 X16.23888 Y-22.63907
G01 X16.24000 Y-23.06000
G01 X16.22141 Y-23.24722
G01 X16.21272 Y-23.28812
G01 X16.16103 Y-23.44717
G01 X16.14404 Y-23.48537
G01 X16.04902 Y-23.64778
G01 X15.92392 Y-23.78832
G01 X15.89286 Y-23.81631
G01 X15.74000 Y-23.92601
G01 X15.54902 Y-24.01105
G01 X15.34452 Y-24.05451
G01 X15.13487 Y-24.05443
G01 X15.05234 Y-24.03757
G01 X10.65497 Y-28.43497
G01 X10.56465 Y-28.51033
G01 X10.53206 Y-28.53210
G01 X10.44560 Y-28.57830
G01 X10.40938 Y-28.59331
G01 X10.29655 Y-28.62654
G01 X10.15997 Y-28.64000
G01 X0.77635 Y-28.63997
G01 X0.70256 Y-28.72029
G01 X0.54254 Y-28.83792
G01 X0.50632 Y-28.85882
G01 X0.34399 Y-28.93108
G01 X0.30424 Y-28.94401
G01 X0.10975 Y-28.98424
G01 X-0.08882 Y-28.98534
G01 X-0.13043 Y-28.98097
G01 X-0.30424 Y-28.94401
G01 X-0.34399 Y-28.93108
G01 X-0.52499 Y-28.84932
G01 X-0.70256 Y-28.72029
G01 X-0.83627 Y-28.57343
G01 X-0.86086 Y-28.53959
G01 X-0.95921 Y-28.36705
G01 X-1.02161 Y-28.17851
G01 X-1.03033 Y-28.13761
G01 X-1.04999 Y-27.94000
G01 X-1.02705 Y-27.72169
G01 X-0.95921 Y-27.51292
G01 X-0.84945 Y-27.32281
G01 X-0.70256 Y-27.15969
G01 X-0.52499 Y-27.03065
G01 X-0.32446 Y-26.94137
G01 X-0.10975 Y-26.89573
G01 X0.10975 Y-26.89573
G01 X0.30424 Y-26.93596
G01 X0.34399 Y-26.94889
G01 X0.50632 Y-27.02116
G01 X0.54254 Y-27.04206
G01 X0.70256 Y-27.15969
G01 X0.77635 Y-27.24000
G01 X9.87003 Y-27.23998
G01 X13.16896 Y-23.94102
G01 X13.21293 Y-23.90821
G01 X13.36754 Y-23.77359
G01 X13.50772 Y-23.62291
G01 X13.57594 Y-23.53404
G01 X13.61354 Y-23.46673
G01 X13.67813 Y-23.26790
G01 X13.69888 Y-23.08090
G01 X13.69888 Y-22.63907
G01 X13.67813 Y-22.45208
G01 X13.62103 Y-22.27280
G01 X13.60404 Y-22.23460
G01 X13.50902 Y-22.07219
G01 X13.38392 Y-21.93166
G01 X13.35286 Y-21.90366
G01 X13.19997 Y-21.79396
G01 X13.00902 Y-21.70892
G01 X12.82517 Y-21.66874
G01 X12.78359 Y-21.66437
G01 X12.59545 Y-21.66546
G01 X12.39096 Y-21.70892
G01 X12.19998 Y-21.79396
G01 X12.03086 Y-21.91685
G01 X11.89096 Y-22.07219
G01 X11.79594 Y-22.23460
G01 X11.77895 Y-22.27280
G01 X11.72185 Y-22.45208
G01 X11.69998 Y-22.65997
G01 X11.70109 Y-23.08090
G01 X11.72185 Y-23.26790
G01 X11.77895 Y-23.44717
G01 X11.79594 Y-23.48537
G01 X11.89096 Y-23.64778
G01 X12.03086 Y-23.80313
G01 X12.19998 Y-23.92601
G01 X12.39096 Y-24.01105
G01 X12.59545 Y-24.05451
G01 X12.80452 Y-24.05451
G01 X13.00902 Y-24.01105
G01 X13.16896 Y-23.94102
G04 P0 ( dwell for no time -- G64 should not smooth over this point )
G00 Z0.30000 ( retract )

G00 X9.15998 Y-23.06000 ( rapid move to begin. )
G01 F10.00000
( Mill infeed pass 1/1 )
G01 Z-0.05000
G04 P0 ( dwell for no time -- G64 should not smooth over this point )
G01 F20.00000
G01 X9.15998 Y-23.06000
G01 X9.18185 Y-23.26790
G01 X9.23895 Y-23.44717
G01 X9.25594 Y-23.48537
G01 X9.33958 Y-23.63020
G01 X9.36414 Y-23.66404
G01 X9.49086 Y-23.80313
G01 X9.64242 Y-23.91461
G01 X9.67864 Y-23.93551
G01 X9.85096 Y-24.01105
G01 X10.05545 Y-24.05451
G01 X10.26452 Y-24.05451
G01 X10.44877 Y-24.01646
G01 X10.48855 Y-24.00353
G01 X10.66000 Y-23.92601
G01 X10.82911 Y-23.80313
G01 X10.96902 Y-23.64778
G01 X11.06404 Y-23.48537
G01 X11.08103 Y-23.44717
G01 X11.13813 Y-23.26790
G01 X11.15888 Y-23.08090
G01 X11.16000 Y-22.65997
G01 X11.13813 Y-22.45208
G01 X11.07354 Y-22.25324
G01 X10.96902 Y-22.07219
G01 X10.82911 Y-21.91685
G01 X10.66000 Y-21.79396
G01 X10.48855 Y-21.71644
G01 X10.44877 Y-21.70351
G01 X10.28520 Y-21.66874
G01 X10.24362 Y-21.66437
G01 X10.05545 Y-21.66546
G01 X9.87120 Y-21.70351
G01 X9.83143 Y-21.71644
G01 X9.65998 Y-21.79396
G01 X9.49086 Y-21.91685
G01 X9.35096 Y-22.07219
G01 X9.24644 Y-22.25324
G01 X9.18726 Y-22.43186
G01 X9.17857 Y-22.47275
G01 X9.15998 Y-22.65997
G01 X9.15998 Y-23.06000
G04 P0 ( dwell for no time -- G64 should not smooth over this point )
G00 Z0.30000 ( retract )

G00 X-1.04999 Y-30.48000 ( rapid move to begin. )
G01 F10.00000
( Mill infeed pass 1/1 )
G01 Z-0.05000
G04 P0 ( dwell for no time -- G64 should not smooth over this point )
G01 F20.00000
G01 X-1.04999 Y-30.48000
G01 X-1.02705 Y-30.26169
G01 X-0.95921 Y-30.05292
G01 X-0.84945 Y-29.86281
G01 X-0.71737 Y-29.71449
G01 X-0.68631 Y-29.68650
G01 X-0.54254 Y-29.58206
G01 X-0.50632 Y-29.56115
G01 X-0.32446 Y-29.48137
G01 X-0.13043 Y-29.43901
G01 X-0.08882 Y-29.43464
G01 X0.10975 Y-29.43573
G01 X0.30424 Y-29.47596
G01 X0.34399 Y-29.48889
G01 X0.50632 Y-29.56115
G01 X0.54254 Y-29.58206
G01 X0.70256 Y-29.69969
G01 X0.77635 Y-29.77998
G01 X12.41003 Y-29.77998
G01 X17.07998 Y-25.11003
G01 X17.08000 Y-23.77049
G01 X16.97096 Y-23.64778
G01 X16.86644 Y-23.46673
G01 X16.80185 Y-23.26790
G01 X16.77998 Y-23.06000
G01 X16.77998 Y-22.65997
G01 X16.80185 Y-22.45208
G01 X16.86644 Y-22.25324
G01 X16.95958 Y-22.08977
G01 X16.98414 Y-22.05594
G01 X17.09605 Y-21.93166
G01 X17.12712 Y-21.90366
G01 X17.27998 Y-21.79396
G01 X17.45143 Y-21.71644
G01 X17.49120 Y-21.70351
G01 X17.67545 Y-21.66546
G01 X17.88452 Y-21.66546
G01 X18.06877 Y-21.70351
G01 X18.10855 Y-21.71644
G01 X18.28000 Y-21.79396
G01 X18.43286 Y-21.90366
G01 X18.46392 Y-21.93166
G01 X18.58902 Y-22.07219
G01 X18.69354 Y-22.25324
G01 X18.75813 Y-22.45208
G01 X18.77888 Y-22.63907
G01 X18.77888 Y-23.08090
G01 X18.75813 Y-23.26790
G01 X18.69354 Y-23.46673
G01 X18.58902 Y-23.64778
G01 X18.48000 Y-23.77049
G01 X18.47903 Y-25.41958
G01 X18.46654 Y-25.53655
G01 X18.43331 Y-25.64938
G01 X18.41830 Y-25.68560
G01 X18.36202 Y-25.78885
G01 X18.27497 Y-25.89497
G01 X13.19497 Y-30.97497
G01 X13.10465 Y-31.05033
G01 X13.07206 Y-31.07210
G01 X12.96787 Y-31.12671
G01 X12.83655 Y-31.16654
G01 X12.69997 Y-31.18000
G01 X0.77635 Y-31.18000
G01 X0.70256 Y-31.26029
G01 X0.54254 Y-31.37792
G01 X0.50632 Y-31.39882
G01 X0.34399 Y-31.47108
G01 X0.30424 Y-31.48401
G01 X0.10975 Y-31.52424
G01 X-0.08882 Y-31.52534
G01 X-0.13043 Y-31.52097
G01 X-0.32446 Y-31.47860
G01 X-0.50632 Y-31.39882
G01 X-0.54254 Y-31.37792
G01 X-0.68631 Y-31.27347
G01 X-0.71737 Y-31.24548
G01 X-0.84945 Y-31.09717
G01 X-0.95921 Y-30.90705
G01 X-1.02705 Y-30.69829
G01 X-1.04999 Y-30.48000
G04 P0 ( dwell for no time -- G64 should not smooth over this point )
G00 Z0.30000 ( retract )

G00 X-1.04999 Y-33.02000 ( rapid move to begin. )
G01 F10.00000
( Mill infeed pass 1/1 )
G01 Z-0.05000
G04 P0 ( dwell for no time -- G64 should not smooth over this point )
G01 F20.00000
G01 X-1.04999 Y-33.02000
G01 X-1.02705 Y-32.80169
G01 X-0.95921 Y-32.59292
G01 X-0.84945 Y-32.40281
G01 X-0.71737 Y-32.25449
G01 X-0.68631 Y-32.22650
G01 X-0.54254 Y-32.12206
G01 X-0.50632 Y-32.10115
G01 X-0.32446 Y-32.02137
G01 X-0.13043 Y-31.97901
G01 X-0.08882 Y-31.97464
G01 X0.10975 Y-31.97573
G01 X0.30424 Y-32.01596
G01 X0.34399 Y-32.02889
G01 X0.50632 Y-32.10115
G01 X0.54254 Y-32.12206
G01 X0.70256 Y-32.23969
G01 X0.77635 Y-32.31998
G01 X14.95003 Y-32.31998
G01 X19.61998 Y-27.65003
G01 X19.61998 Y-23.77049
G01 X19.51096 Y-23.64778
G01 X19.40644 Y-23.46673
G01 X19.34185 Y-23.26790
G01 X19.31998 Y-23.06000
G01 X19.31998 Y-22.65997
G01 X19.34185 Y-22.45208
G01 X19.40644 Y-22.25324
G01 X19.49958 Y-22.08977
G01 X19.52414 Y-22.05594
G01 X19.65086 Y-21.91685
G01 X19.80242 Y-21.80537
G01 X19.83864 Y-21.78446
G01 X20.01096 Y-21.70892
G01 X20.19478 Y-21.66874
G01 X20.23636 Y-21.66437
G01 X20.42452 Y-21.66546
G01 X20.60877 Y-21.70351
G01 X20.64855 Y-21.71644
G01 X20.82000 Y-21.79396
G01 X20.97286 Y-21.90366
G01 X21.00392 Y-21.93166
G01 X21.12902 Y-22.07219
G01 X21.23354 Y-22.25324
G01 X21.29813 Y-22.45208
G01 X21.31888 Y-22.63907
G01 X21.32000 Y-23.06000
G01 X21.30141 Y-23.24722
G01 X21.29272 Y-23.28812
G01 X21.24103 Y-23.44717
G01 X21.22404 Y-23.48537
G01 X21.12902 Y-23.64778
G01 X21.01997 Y-23.77049
G01 X21.02000 Y-27.93997
G01 X21.00654 Y-28.07655
G01 X20.97331 Y-28.18938
G01 X20.95830 Y-28.22560
G01 X20.90202 Y-28.32887
G01 X20.81497 Y-28.43497
G01 X15.73497 Y-33.51497
G01 X15.64465 Y-33.59033
G01 X15.61206 Y-33.61210
G01 X15.52560 Y-33.65830
G01 X15.48938 Y-33.67331
G01 X15.37655 Y-33.70654
G01 X15.23997 Y-33.72000
G01 X0.77635 Y-33.72000
G01 X0.70256 Y-33.80029
G01 X0.54254 Y-33.91792
G01 X0.50632 Y-33.93882
G01 X0.34399 Y-34.01108
G01 X0.30424 Y-34.02401
G01 X0.10975 Y-34.06424
G01 X-0.08882 Y-34.06534
G01 X-0.13043 Y-34.06097
G01 X-0.32446 Y-34.01860
G01 X-0.50632 Y-33.93882
G01 X-0.54254 Y-33.91792
G01 X-0.68631 Y-33.81347
G01 X-0.71737 Y-33.78548
G01 X-0.84945 Y-33.63717
G01 X-0.95921 Y-33.44705
G01 X-1.02705 Y-33.23829
G01 X-1.04999 Y-33.02000
G04 P0 ( dwell for no time -- G64 should not smooth over this point )
G00 Z0.30000 ( retract )

G00 X-1.04999 Y-36.40999 ( rapid move to begin. )
G01 F10.00000
( Mill infeed pass 1/1 )
G01 Z-0.05000
G04 P0 ( dwell for no time -- G64 should not smooth over this point )
G01 F20.00000
G01 X-1.04999 Y-36.40999
G01 X-1.04615 Y-36.44900
G01 X-1.03477 Y-36.48652
G01 X-1.01628 Y-36.52111
G01 X-0.99141 Y-36.55141
G01 X-0.96111 Y-36.57628
G01 X-0.92652 Y-36.59477
G01 X-0.88900 Y-36.60615
G01 X-0.84999 Y-36.60999
G01 X0.84999 Y-36.60999
G01 X0.88900 Y-36.60615
G01 X0.92652 Y-36.59477
G01 X0.96111 Y-36.57628
G01 X0.99141 Y-36.55141
G01 X1.01628 Y-36.52111
G01 X1.03477 Y-36.48652
G01 X1.04615 Y-36.44900
G01 X1.04999 Y-36.40999
G01 X1.04999 Y-36.26000
G01 X17.78000 Y-36.26000
G01 X17.89714 Y-36.24941
G01 X17.93560 Y-36.24176
G01 X18.04787 Y-36.20671
G01 X18.15206 Y-36.15210
G01 X18.18465 Y-36.13033
G01 X18.27497 Y-36.05497
G01 X23.35497 Y-30.97497
G01 X23.44202 Y-30.86887
G01 X23.49830 Y-30.76560
G01 X23.51331 Y-30.72938
G01 X23.54654 Y-30.61655
G01 X23.56000 Y-30.48000
G01 X23.56000 Y-23.77049
G01 X23.66902 Y-23.64778
G01 X23.76404 Y-23.48537
G01 X23.78103 Y-23.44717
G01 X23.83272 Y-23.28812
G01 X23.84141 Y-23.24722
G01 X23.86000 Y-23.06000
G01 X23.85888 Y-22.63907
G01 X23.83813 Y-22.45208
G01 X23.78103 Y-22.27280
G01 X23.76404 Y-22.23460
G01 X23.66902 Y-22.07219
G01 X23.54392 Y-21.93166
G01 X23.51286 Y-21.90366
G01 X23.36000 Y-21.79396
G01 X23.16902 Y-21.70892
G01 X22.98520 Y-21.66874
G01 X22.94362 Y-21.66437
G01 X22.75545 Y-21.66546
G01 X22.55096 Y-21.70892
G01 X22.37864 Y-21.78446
G01 X22.34242 Y-21.80537
G01 X22.19086 Y-21.91685
G01 X22.05096 Y-22.07219
G01 X21.95594 Y-22.23460
G01 X21.93895 Y-22.27280
G01 X21.88185 Y-22.45208
G01 X21.85998 Y-22.65997
G01 X21.85998 Y-23.06000
G01 X21.88185 Y-23.26790
G01 X21.93895 Y-23.44717
G01 X21.95594 Y-23.48537
G01 X22.05096 Y-23.64778
G01 X22.16000 Y-23.77049
G01 X22.15998 Y-30.19003
G01 X17.49003 Y-34.85998
G01 X1.04999 Y-34.85998
G01 X1.04999 Y-34.70999
G01 X1.04615 Y-34.67097
G01 X1.03477 Y-34.63346
G01 X1.01628 Y-34.59886
G01 X0.99141 Y-34.56856
G01 X0.96111 Y-34.54370
G01 X0.92652 Y-34.52520
G01 X0.88900 Y-34.51382
G01 X0.84999 Y-34.50999
G01 X-0.84999 Y-34.50999
G01 X-0.88900 Y-34.51382
G01 X-0.92652 Y-34.52520
G01 X-0.96111 Y-34.54370
G01 X-0.99141 Y-34.56856
G01 X-1.01628 Y-34.59886
G01 X-1.03477 Y-34.63346
G01 X-1.04615 Y-34.67097
G01 X-1.04999 Y-34.70999
G01 X-1.04999 Y-36.40999

G04 P0 ( dwell for no time -- G64 should not smooth over this point )
G00 Z25.000000 ( retract )

M5 ( Spindle off. )
G04 P1.000000
M9 ( Coolant off. )
M2 ( Program end. )

