( pcb2gcode 2.4.0 )
( Software-independent Gcode )
( This file uses a mill head of 0.80000mm to drill the 1 hole sizes. )
( Hole sizes: [1mm] )

G94       (Millimeters per minute feed rate.)
G21       (Units == Millimeters.)
G91.1     (Incremental arc distance mode.)
G90       (Absolute coordinates.)
S8000    (RPM spindle speed.)

G01 F35.00000 (Feedrate)
G00 Z25.00000 (Retract)
T1
M5        (Spindle stop.)
G04 P1.00000
(MSG, Change tool bit to drill size 0.80000mm)
M6        (Tool change.)
M0        (Temporary machine stop.)
M3        (Spindle on clockwise.)
G04 P1.00000
G00 Z1.00000

G0 X0.10000 Y0.00000
G1 Z1.60000 F17.50000
G1 F35.00000
G2 X0.10000 Y0.00000 Z-0.00000 I-0.10000 J0.00000
G2 X0.10000 Y0.00000 Z-1.60000 I-0.10000 J0.00000
G2 X0.10000 Y0.00000 I-0.10000 J0.00000
G1 Z1.00000 F17.50000

G0 X0.10000 Y-2.54000
G1 Z1.60000 F17.50000
G1 F35.00000
G2 X0.10000 Y-2.54000 Z-0.00000 I-0.10000 J0.00000
G2 X0.10000 Y-2.54000 Z-1.60000 I-0.10000 J0.00000
G2 X0.10000 Y-2.54000 I-0.10000 J0.00000
G1 Z1.00000 F17.50000

G0 X0.10000 Y-5.08000
G1 Z1.60000 F17.50000
G1 F35.00000
G2 X0.10000 Y-5.08000 Z-0.00000 I-0.10000 J0.00000
G2 X0.10000 Y-5.08000 Z-1.60000 I-0.10000 J0.00000
G2 X0.10000 Y-5.08000 I-0.10000 J0.00000
G1 Z1.00000 F17.50000

G0 X0.10000 Y-7.62000
G1 Z1.60000 F17.50000
G1 F35.00000
G2 X0.10000 Y-7.62000 Z-0.00000 I-0.10000 J0.00000
G2 X0.10000 Y-7.62000 Z-1.60000 I-0.10000 J0.00000
G2 X0.10000 Y-7.62000 I-0.10000 J0.00000
G1 Z1.00000 F17.50000

G0 X10.26000 Y-12.70000
G1 Z1.60000 F17.50000
G1 F35.00000
G2 X10.26000 Y-12.70000 Z-0.00000 I-0.10000 J0.00000
G2 X10.26000 Y-12.70000 Z-1.60000 I-0.10000 J0.00000
G2 X10.26000 Y-12.70000 I-0.10000 J0.00000
G1 Z1.00000 F17.50000

G0 X12.80000 Y-12.70000
G1 Z1.60000 F17.50000
G1 F35.00000
G2 X12.80000 Y-12.70000 Z-0.00000 I-0.10000 J0.00000
G2 X12.80000 Y-12.70000 Z-1.60000 I-0.10000 J0.00000
G2 X12.80000 Y-12.70000 I-0.10000 J0.00000
G1 Z1.00000 F17.50000

G0 X15.34000 Y-12.70000
G1 Z1.60000 F17.50000
G1 F35.00000
G2 X15.34000 Y-12.70000 Z-0.00000 I-0.10000 J0.00000
G2 X15.34000 Y-12.70000 Z-1.60000 I-0.10000 J0.00000
G2 X15.34000 Y-12.70000 I-0.10000 J0.00000
G1 Z1.00000 F17.50000

G0 X17.88000 Y-12.70000
G1 Z1.60000 F17.50000
G1 F35.00000
G2 X17.88000 Y-12.70000 Z-0.00000 I-0.10000 J0.00000
G2 X17.88000 Y-12.70000 Z-1.60000 I-0.10000 J0.00000
G2 X17.88000 Y-12.70000 I-0.10000 J0.00000
G1 Z1.00000 F17.50000

G0 X20.42000 Y-12.70000
G1 Z1.60000 F17.50000
G1 F35.00000
G2 X20.42000 Y-12.70000 Z-0.00000 I-0.10000 J0.00000
G2 X20.42000 Y-12.70000 Z-1.60000 I-0.10000 J0.00000
G2 X20.42000 Y-12.70000 I-0.10000 J0.00000
G1 Z1.00000 F17.50000

G0 X22.96000 Y-12.70000
G1 Z1.60000 F17.50000
G1 F35.00000
G2 X22.96000 Y-12.70000 Z-0.00000 I-0.10000 J0.00000
G2 X22.96000 Y-12.70000 Z-1.60000 I-0.10000 J0.00000
G2 X22.96000 Y-12.70000 I-0.10000 J0.00000
G1 Z1.00000 F17.50000

G0 X25.50000 Y-12.70000
G1 Z1.60000 F17.50000
G1 F35.00000
G2 X25.50000 Y-12.70000 Z-0.00000 I-0.10000 J0.00000
G2 X25.50000 Y-12.70000 Z-1.60000 I-0.10000 J0.00000
G2 X25.50000 Y-12.70000 I-0.10000 J0.00000
G1 Z1.00000 F17.50000

G0 X28.04000 Y-12.70000
G1 Z1.60000 F17.50000
G1 F35.00000
G2 X28.04000 Y-12.70000 Z-0.00000 I-0.10000 J0.00000
G2 X28.04000 Y-12.70000 Z-1.60000 I-0.10000 J0.00000
G2 X28.04000 Y-12.70000 I-0.10000 J0.00000
G1 Z1.00000 F17.50000

G0 X40.74000 Y0.00000
G1 Z1.60000 F17.50000
G1 F35.00000
G2 X40.74000 Y0.00000 Z-0.00000 I-0.10000 J0.00000
G2 X40.74000 Y0.00000 Z-1.60000 I-0.10000 J0.00000
G2 X40.74000 Y0.00000 I-0.10000 J0.00000
G1 Z1.00000 F17.50000

G0 X40.74000 Y-2.54000
G1 Z1.60000 F17.50000
G1 F35.00000
G2 X40.74000 Y-2.54000 Z-0.00000 I-0.10000 J0.00000
G2 X40.74000 Y-2.54000 Z-1.60000 I-0.10000 J0.00000
G2 X40.74000 Y-2.54000 I-0.10000 J0.00000
G1 Z1.00000 F17.50000

G0 X40.74000 Y-5.08000
G1 Z1.60000 F17.50000
G1 F35.00000
G2 X40.74000 Y-5.08000 Z-0.00000 I-0.10000 J0.00000
G2 X40.74000 Y-5.08000 Z-1.60000 I-0.10000 J0.00000
G2 X40.74000 Y-5.08000 I-0.10000 J0.00000
G1 Z1.00000 F17.50000

G0 X40.74000 Y-7.62000
G1 Z1.60000 F17.50000
G1 F35.00000
G2 X40.74000 Y-7.62000 Z-0.00000 I-0.10000 J0.00000
G2 X40.74000 Y-7.62000 Z-1.60000 I-0.10000 J0.00000
G2 X40.74000 Y-7.62000 I-0.10000 J0.00000
G1 Z1.00000 F17.50000

G0 X12.80000 Y-35.56000
G1 Z1.60000 F17.50000
G1 F35.00000
G2 X12.80000 Y-35.56000 Z-0.00000 I-0.10000 J0.00000
G2 X12.80000 Y-35.56000 Z-1.60000 I-0.10000 J0.00000
G2 X12.80000 Y-35.56000 I-0.10000 J0.00000
G1 Z1.00000 F17.50000

G0 X10.26000 Y-35.56000
G1 Z1.60000 F17.50000
G1 F35.00000
G2 X10.26000 Y-35.56000 Z-0.00000 I-0.10000 J0.00000
G2 X10.26000 Y-35.56000 Z-1.60000 I-0.10000 J0.00000
G2 X10.26000 Y-35.56000 I-0.10000 J0.00000
G1 Z1.00000 F17.50000

G0 X15.34000 Y-35.56000
G1 Z1.60000 F17.50000
G1 F35.00000
G2 X15.34000 Y-35.56000 Z-0.00000 I-0.10000 J0.00000
G2 X15.34000 Y-35.56000 Z-1.60000 I-0.10000 J0.00000
G2 X15.34000 Y-35.56000 I-0.10000 J0.00000
G1 Z1.00000 F17.50000

G0 X17.88000 Y-35.56000
G1 Z1.60000 F17.50000
G1 F35.00000
G2 X17.88000 Y-35.56000 Z-0.00000 I-0.10000 J0.00000
G2 X17.88000 Y-35.56000 Z-1.60000 I-0.10000 J0.00000
G2 X17.88000 Y-35.56000 I-0.10000 J0.00000
G1 Z1.00000 F17.50000

G0 X20.42000 Y-35.56000
G1 Z1.60000 F17.50000
G1 F35.00000
G2 X20.42000 Y-35.56000 Z-0.00000 I-0.10000 J0.00000
G2 X20.42000 Y-35.56000 Z-1.60000 I-0.10000 J0.00000
G2 X20.42000 Y-35.56000 I-0.10000 J0.00000
G1 Z1.00000 F17.50000

G0 X22.96000 Y-35.56000
G1 Z1.60000 F17.50000
G1 F35.00000
G2 X22.96000 Y-35.56000 Z-0.00000 I-0.10000 J0.00000
G2 X22.96000 Y-35.56000 Z-1.60000 I-0.10000 J0.00000
G2 X22.96000 Y-35.56000 I-0.10000 J0.00000
G1 Z1.00000 F17.50000

G0 X25.50000 Y-35.56000
G1 Z1.60000 F17.50000
G1 F35.00000
G2 X25.50000 Y-35.56000 Z-0.00000 I-0.10000 J0.00000
G2 X25.50000 Y-35.56000 Z-1.60000 I-0.10000 J0.00000
G2 X25.50000 Y-35.56000 I-0.10000 J0.00000
G1 Z1.00000 F17.50000

G0 X28.04000 Y-35.56000
G1 Z1.60000 F17.50000
G1 F35.00000
G2 X28.04000 Y-35.56000 Z-0.00000 I-0.10000 J0.00000
G2 X28.04000 Y-35.56000 Z-1.60000 I-0.10000 J0.00000
G2 X28.04000 Y-35.56000 I-0.10000 J0.00000
G1 Z1.00000 F17.50000

G00 Z25.000000 ( All done -- retract )

M5      (Spindle off.)
G04 P1.000000
M9      (Coolant off.)
M2      (Program end.)

